<?xml version="1.0" encoding="UTF-8"?>
<map version="1.10" tiledversion="1.12.2" orientation="orthogonal" renderorder="right-down" width="12" height="8" tilewidth="16" tileheight="16" infinite="0" nextlayerid="9" nextobjectid="1">
 <tileset firstgid="1" source="../tiles/Room_Builder_Office.tsx"/>
 <tileset firstgid="225" source="../tiles/Modern_Office_Black_Shadow.tsx"/>
 <layer id="1" name="outerLine" width="12" height="8">
  <data encoding="csv">
24,25,25,25,25,25,25,25,25,0,57,42,
40,0,0,0,0,0,0,0,0,0,0,42,
40,0,0,0,0,0,0,0,0,0,0,42,
40,0,0,0,0,0,0,0,0,0,0,42,
40,0,0,0,0,0,0,0,0,0,0,42,
40,0,0,0,0,0,0,0,0,0,0,42,
40,0,0,0,0,0,0,0,0,0,0,42,
56,57,57,57,57,57,57,57,57,57,57,58
</data>
 </layer>
 <layer id="3" name="wall" width="12" height="8">
  <data encoding="csv">
0,178,178,178,178,178,178,178,178,0,178,0,
0,194,194,194,194,194,194,194,194,0,194,0,
0,0,0,0,0,0,0,0,0,0,0,0,
0,0,0,0,0,0,0,0,0,0,0,0,
0,0,0,0,0,0,0,0,0,0,0,0,
0,0,0,0,0,0,0,0,0,0,0,0,
0,0,0,0,0,0,0,0,0,0,0,0,
0,0,0,0,0,0,0,0,0,0,0,0
</data>
 </layer>
 <layer id="4" name="floor" width="12" height="8">
  <data encoding="csv">
0,0,0,0,0,0,0,0,0,107,0,0,
0,0,0,0,0,0,0,0,0,107,0,0,
0,92,92,92,92,92,92,92,92,108,92,0,
0,108,108,108,108,108,108,108,108,108,108,0,
0,108,108,108,108,108,108,108,108,108,108,0,
0,108,108,108,108,108,108,108,108,108,108,0,
0,108,108,108,108,108,108,108,108,108,108,0,
0,0,0,0,0,0,0,0,0,0,0,0
</data>
 </layer>
 <layer id="5" name="furniture" width="12" height="8">
  <data encoding="csv">
0,0,0,0,0,0,0,0,0,0,0,0,
0,0,0,0,0,0,0,0,0,0,0,0,
0,0,0,0,231,232,233,0,0,32,0,0,
0,0,0,0,263,264,265,0,0,0,0,0,
0,0,0,0,0,0,0,0,0,0,0,0,
0,0,0,0,0,0,0,0,0,0,0,0,
0,0,0,0,0,0,0,0,0,0,0,0,
0,0,0,0,0,0,0,0,0,0,0,0
</data>
 </layer>
 <layer id="6" name="furniture2" width="12" height="8">
  <data encoding="csv">
0,343,0,0,0,0,0,0,0,0,0,0,
0,359,0,0,0,0,0,0,0,0,0,0,
0,375,0,0,0,0,0,0,0,0,0,0,
0,0,0,0,0,354,0,0,0,0,0,0,
0,0,0,0,0,370,0,0,0,0,0,0,
0,0,0,0,0,0,0,0,0,0,0,0,
0,0,0,0,0,0,0,0,0,0,0,0,
0,0,0,0,0,0,0,0,0,0,0,0
</data>
 </layer>
 <layer id="7" name="stuff" width="12" height="8">
  <data encoding="csv">
0,0,0,0,0,0,417,418,0,0,0,0,
0,0,0,0,0,0,433,434,0,0,0,0,
0,0,0,0,476,431,480,0,0,0,0,0,
0,0,0,0,492,463,496,0,0,0,0,0,
0,0,0,0,0,0,0,0,0,0,986,0,
0,444,0,0,0,0,0,0,0,0,1002,0,
0,460,0,0,0,0,0,0,0,0,0,0,
0,0,0,0,0,0,0,0,0,0,0,0
</data>
 </layer>
 <layer id="8" name="stuff2" width="12" height="8">
  <data encoding="csv">
0,0,0,0,0,0,0,0,0,0,0,0,
0,0,0,0,0,0,0,0,0,0,0,0,
0,0,0,0,0,0,0,0,0,0,0,0,
0,0,0,0,0,0,0,0,0,0,0,0,
0,0,0,0,0,0,0,0,0,0,0,0,
0,0,0,0,0,0,0,0,0,987,1018,0,
0,0,0,0,0,0,0,0,0,1003,1034,0,
0,0,0,0,0,0,0,0,0,0,0,0
</data>
 </layer>
</map>
